build/img/icons/logo.svg

<svg width="167" height="59" viewBox="0 0 167 59" fill="none" xmlns="http://www.w3.org/2000/svg">
<path fill-rule="evenodd" clip-rule="evenodd" d="M44.5938 32.7018C36.5444 31.5586 31.061 24.9206 31.061 16.6232C31.061 7.75395 37.702 0.807129 47.0955 0.807129C56.489 0.807129 63.13 7.75395 63.13 16.6232C63.13 24.737 57.8866 31.264 50.1279 32.6179V36.8071L165 36.8071C166.105 36.8071 167 37.7026 167 38.8071V56.8071C167 57.9117 166.105 58.8071 165 58.8071L2 58.8071C0.895433 58.8071 0 57.9117 0 56.8071V38.8071C0 37.7026 0.895431 36.8071 2 36.8071H44.5938V32.7018ZM36.8719 16.6232C36.8719 10.5938 41.1536 5.96263 47.0955 5.96263C53.0375 5.96263 57.3191 10.5938 57.3191 16.6232C57.3191 22.9146 53.0375 27.7206 47.0955 27.7206C41.1536 27.7206 36.8719 22.9146 36.8719 16.6232ZM0 32.3518H5.6361V14.4823C5.6361 12.6473 5.33027 9.67634 5.33027 9.67634H5.41765C5.41765 9.67634 6.81575 12.6473 7.9954 14.4823L19.7482 32.3518H25.3406V1.33142H19.7482V19.2446C19.7482 21.0796 20.054 24.0506 20.054 24.0506H19.9667C19.9667 24.0506 18.5249 21.0796 17.3889 19.2446L5.6361 1.33142H0V32.3518ZM81.6392 32.3518H75.7846L64.5998 1.33142H70.6728L77.4885 21.5602C78.0565 23.3515 78.6682 26.104 78.6682 26.104H78.7556C78.7556 26.104 79.3672 23.3515 79.9352 21.5602L86.8384 1.33142H92.824L81.6392 32.3518ZM96.8108 32.3518H102.447V1.33142H96.8108V32.3518ZM124.195 32.8761C114.452 32.8761 108.161 25.8419 108.161 16.7105C108.161 7.71026 114.758 0.807129 124.108 0.807129C128.171 0.807129 132.54 2.11785 135.555 5.04513L132.846 9.23944C130.661 7.36074 127.385 5.96263 124.37 5.96263C117.554 5.96263 113.972 10.8997 113.972 16.6232C113.972 22.434 117.685 27.7206 124.414 27.7206C127.734 27.7206 131.055 26.104 133.414 23.7884L136.385 27.8517C133.72 30.5605 129.744 32.8761 124.195 32.8761ZM141.227 32.3518H146.863V19.332H161.062V32.3518H166.655V1.33142H161.062V14.4823H146.863V1.33142H141.227V32.3518ZM42.2292 13.3318C42.9007 11.3014 44.8141 9.83643 47.0697 9.83643C49.3252 9.83643 51.2386 11.3014 51.9101 13.3318H49.254V14.7882H52.1649C52.1662 14.8365 52.1669 14.885 52.1669 14.9337V16.5358H49.254V17.9921H52.1669V19.0115C52.1669 19.2587 52.1493 19.5019 52.1153 19.7397H49.254V21.1961H51.6763C50.8582 22.9182 49.103 24.1087 47.0697 24.1087C45.0363 24.1087 43.2811 22.9182 42.463 21.1961H45.1762V19.7397H42.024C41.99 19.5019 41.9724 19.2587 41.9724 19.0115V17.9921H45.1763V16.5358H41.9724V14.9337C41.9724 14.885 41.9731 14.8365 41.9744 14.7882H45.1763V13.3318H42.2292ZM53.5974 53.8071H51.2214L55.7034 41.0271H58.1514L62.6334 53.8071H60.2574L59.1594 50.5311H54.6774L53.5974 53.8071ZM56.4054 45.2211L55.2534 48.6411H58.5834L57.4494 45.2211C57.2334 44.5011 56.9454 43.2411 56.9454 43.2411H56.9094C56.9094 43.2411 56.6214 44.5011 56.4054 45.2211ZM79.2005 53.8071H71.3525V41.0271H73.6745V51.8091H79.2005V53.8071ZM88.0229 53.8071H95.9609V51.8091H90.3449V48.3711H94.6469V46.3731H90.3449V43.0251H95.6729V41.0271H88.0229V53.8071ZM106.533 53.8071H103.959L107.919 47.3271L104.103 41.0271H106.749L108.513 44.1591C108.909 44.8971 109.305 45.7251 109.305 45.7251H109.341C109.341 45.7251 109.701 44.9151 110.133 44.1591L111.915 41.0271H114.561L110.727 47.3271L114.705 53.8071H112.113L110.115 50.3691C109.701 49.6311 109.323 48.8571 109.323 48.8571H109.287C109.287 48.8571 108.927 49.6311 108.513 50.3691L106.533 53.8071Z" fill="#262528"/>
</svg>

<svg viewBox="0 0 167 59" fill="none" xmlns="http://www.w3.org/2000/svg"><path fill-rule="evenodd" clip-rule="evenodd" d="M44.594 32.702c-8.05-1.143-13.533-7.781-13.533-16.079 0-8.87 6.641-15.816 16.035-15.816 9.393 0 16.034 6.947 16.034 15.816 0 8.114-5.243 14.641-13.002 15.995v4.19H165a2 2 0 012 2v18a2 2 0 01-2 2H2a2 2 0 01-2-2v-18a2 2 0 012-2h42.594v-4.106zm-7.722-16.079c0-6.03 4.282-10.66 10.224-10.66s10.223 4.63 10.223 10.66c0 6.292-4.282 11.098-10.224 11.098-5.941 0-10.223-4.806-10.223-11.098zM0 32.352h5.636v-17.87c0-1.835-.306-4.806-.306-4.806h.088s1.398 2.971 2.577 4.806l11.753 17.87h5.593V1.332h-5.593v17.913c0 1.835.306 4.806.306 4.806h-.087s-1.442-2.971-2.578-4.806L5.636 1.33H0v31.02zm81.64 0h-5.855L64.6 1.332h6.073l6.816 20.228c.567 1.792 1.18 4.544 1.18 4.544h.087s.611-2.752 1.18-4.544l6.902-20.229h5.986l-11.185 31.02zm15.17 0h5.637V1.332h-5.636v31.02zm27.385.524c-9.743 0-16.034-7.034-16.034-16.165 0-9 6.597-15.904 15.947-15.904 4.063 0 8.432 1.31 11.447 4.238l-2.709 4.194c-2.185-1.878-5.461-3.276-8.476-3.276-6.816 0-10.398 4.937-10.398 10.66 0 5.811 3.713 11.098 10.442 11.098 3.32 0 6.641-1.617 9-3.933l2.971 4.064c-2.665 2.709-6.641 5.024-12.19 5.024zm17.032-.524h5.636v-13.02h14.199v13.02h5.593V1.332h-5.593v13.15h-14.199V1.332h-5.636v31.02zm-98.998-19.02a5.1 5.1 0 019.681 0h-2.656v1.456h2.91c.002.048.003.097.003.146v1.602h-2.913v1.456h2.913v1.02c0 .247-.018.49-.052.728h-2.861v1.456h2.422a5.098 5.098 0 01-9.213 0h2.713V19.74h-3.152a5.144 5.144 0 01-.052-.728v-1.02h3.204v-1.456h-3.204v-1.602l.002-.146h3.202v-1.456H42.23zm11.368 40.475h-2.376l4.482-12.78h2.448l4.482 12.78h-2.376l-1.098-3.276h-4.482l-1.08 3.276zm2.808-8.586l-1.152 3.42h3.33l-1.134-3.42c-.216-.72-.504-1.98-.504-1.98h-.036s-.288 1.26-.504 1.98zm22.796 8.586h-7.848v-12.78h2.322V51.81H79.2v1.998zm8.822 0h7.938V51.81h-5.616v-3.438h4.302v-1.998h-4.302v-3.348h5.328v-1.998h-7.65v12.78zm18.51 0h-2.574l3.96-6.48-3.816-6.3h2.646l1.764 3.132c.396.738.792 1.566.792 1.566h.036s.36-.81.792-1.566l1.782-3.132h2.646l-3.834 6.3 3.978 6.48h-2.592l-1.998-3.438c-.414-.738-.792-1.512-.792-1.512h-.036s-.36.774-.774 1.512l-1.98 3.438z" fill="#262528"/></svg>
